communes/5249.svg

<?xml version="1.0" encoding="UTF-8" standalone="no"?>
<svg
   xmlns:i="http://ns.adobe.com/AdobeIllustrator/10.0/"
   xmlns:dc="http://purl.org/dc/elements/1.1/"
   xmlns:cc="http://web.resource.org/cc/"
   xmlns:rdf="http://www.w3.org/1999/02/22-rdf-syntax-ns#"
   xmlns:svg="http://www.w3.org/2000/svg"
   xmlns="http://www.w3.org/2000/svg"
   xmlns:xlink="http://www.w3.org/1999/xlink"
   xmlns:sodipodi="http://sodipodi.sourceforge.net/DTD/sodipodi-0.dtd"
   xmlns:inkscape="http://www.inkscape.org/namespaces/inkscape"
   height="763"
   width="603"
   version="1.0"
   id="svg20"
   sodipodi:version="0.32"
   inkscape:version="0.44"
   sodipodi:docname="CastelSanPietro-blason.svg"
   sodipodi:docbase="C:\Documents and Settings\Steve\Bureau\Blason Villages Suisse pour Wikipédia (par Delta-9)\TI">
  <metadata
     id="metadata31">
    <rdf:RDF>
      <cc:Work
         rdf:about="">
        <dc:format>image/svg+xml</dc:format>
        <dc:type
           rdf:resource="http://purl.org/dc/dcmitype/StillImage" />
        <dc:date>07-AUG-2006</dc:date>
        <dc:creator>
          <cc:Agent>
            <dc:title>Jérôme BLUM (wagner51)</dc:title>
          </cc:Agent>
        </dc:creator>
        <cc:license
           rdf:resource="http://creativecommons.org/licenses/GPL/2.0/" />
        <dc:coverage />
        <dc:description>Gabarit pour le Projet:Blasons de WIkipédia</dc:description>
        <dc:subject>
          <rdf:Bag>
            <rdf:li>blason suisse modèle gabarit projet blasons</rdf:li>
          </rdf:Bag>
        </dc:subject>
        <dc:language>fr</dc:language>
        <dc:title>Gabrit d'un blason suisse</dc:title>
      </cc:Work>
      <cc:License
         rdf:about="http://creativecommons.org/licenses/GPL/2.0/">
        <cc:permits
           rdf:resource="http://web.resource.org/cc/Reproduction" />
        <cc:permits
           rdf:resource="http://web.resource.org/cc/Distribution" />
        <cc:requires
           rdf:resource="http://web.resource.org/cc/Notice" />
        <cc:permits
           rdf:resource="http://web.resource.org/cc/DerivativeWorks" />
        <cc:requires
           rdf:resource="http://web.resource.org/cc/ShareAlike" />
        <cc:requires
           rdf:resource="http://web.resource.org/cc/SourceCode" />
      </cc:License>
    </rdf:RDF>
  </metadata>
  <defs
     id="defs29">
    <linearGradient
       id="linearGradient2893">
      <stop
         style="stop-color:#ffffff;stop-opacity:0.3137255;"
         offset="0"
         id="stop2895" />
      <stop
         id="stop2897"
         offset="0.19"
         style="stop-color:#ffffff;stop-opacity:0.25098041;" />
      <stop
         style="stop-color:#6b6b6b;stop-opacity:0.1254902;"
         offset="0.60000002"
         id="stop2901" />
      <stop
         style="stop-color:#000000;stop-opacity:0.1254902;"
         offset="1"
         id="stop2899" />
    </linearGradient>
    <linearGradient
       id="linearGradient2955">
      <stop
         style="stop-color:white;stop-opacity:0;"
         offset="0"
         id="stop2965" />
      <stop
         style="stop-color:black;stop-opacity:0.64583331;"
         offset="1"
         id="stop2959" />
    </linearGradient>
    <radialGradient
       inkscape:collect="always"
       xlink:href="#linearGradient2893"
       id="radialGradient3236"
       gradientUnits="userSpaceOnUse"
       gradientTransform="matrix(1.215027,1.531577e-24,1.464684e-23,1.266667,-839.1924,-490.4894)"
       cx="858.04236"
       cy="579.93323"
       fx="858.04236"
       fy="579.93323"
       r="300" />
    <foreignObject
       requiredExtensions="http://ns.adobe.com/AdobeIllustrator/10.0/"
       x="0"
       y="0"
       width="1"
       height="1"
       id="foreignObject1945">
      <i:pgfRef
         xlink:href="#adobe_illustrator_pgf" />
    </foreignObject>
    <foreignObject
       requiredExtensions="http://ns.adobe.com/AdobeIllustrator/10.0/"
       x="0"
       y="0"
       width="1"
       height="1"
       id="foreignObject2908">
      <i:pgfRef
         xlink:href="#adobe_illustrator_pgf" />
    </foreignObject>
  </defs>
  <sodipodi:namedview
     inkscape:window-height="691"
     inkscape:window-width="939"
     inkscape:pageshadow="2"
     inkscape:pageopacity="0.0"
     guidetolerance="10.0"
     gridtolerance="10.0"
     objecttolerance="10.0"
     borderopacity="1.0"
     bordercolor="#666666"
     pagecolor="#ffffff"
     id="base"
     inkscape:zoom="0.6378866"
     inkscape:cx="341.35703"
     inkscape:cy="393.15045"
     inkscape:window-x="74"
     inkscape:window-y="66"
     inkscape:current-layer="layer1"
     showgrid="false"
     showguides="true"
     inkscape:guide-bbox="true" />
  <desc
     id="desc22">Coat of Arms of Canton of Freiburg (Fribourg)</desc>
  <g
     inkscape:groupmode="layer"
     id="layer1"
     inkscape:label="Fond écu"
     sodipodi:insensitive="true">
    <path
       id="path1899"
       d="M 1.5,1.49998 L 1.5,460.3679 C 1.5,626.6785 135.81456,761.5 301.49999,761.5 C 467.18543,761.5 601.5,626.6785 601.5,460.3679 L 601.5,1.49998 L 1.5,1.49998 z "
       style="fill:#e20909;fill-opacity:1" />
  </g>
  <g
     inkscape:groupmode="layer"
     id="layer2"
     inkscape:label="Meubles"
     style="opacity:1"
     sodipodi:insensitive="true">
    <path
       style="fill:#5ab532;fill-opacity:1;stroke:black;stroke-width:2.75;stroke-miterlimit:4;stroke-dasharray:none;stroke-opacity:1"
       d="M 301.5,563.21875 C 250.44296,563.21872 236.5728,609.58441 242.875,640.46875 C 242.875,640.46874 198.12245,601.39203 161.5625,643.625 C 139.34848,669.28596 143.84942,699.47984 156.90625,724.25 C 199.79238,747.97796 249.06849,761.5 301.5,761.5 C 353.93151,761.5 403.20762,747.97796 446.09375,724.25 C 459.15042,699.47984 463.65152,669.28595 441.4375,643.625 C 404.88005,601.39204 360.125,640.46875 360.125,640.46875 C 366.42973,609.5844 352.55452,563.21875 301.5,563.21875 z "
       id="path4760" />
    <g
       id="g4753"
       transform="matrix(1.05,0,0,1.05,-15.0754,-43.68848)">
      <polygon
         transform="matrix(1.795856,0,0,1.795856,126.0564,164.7916)"
         id="polygon2915"
         points="1.5,132.848 1.5,96.293 14.583,110.915 27.666,96.293 27.666,132.848 1.5,132.848 "
         i:knockout="Off"
         style="fill:white;stroke:black;stroke-width:1.53130317;stroke-miterlimit:4;stroke-dasharray:none" />
      <polygon
         transform="matrix(1.795856,0,0,1.795856,126.0564,164.7916)"
         id="polygon2917"
         points="193.896,132.848 193.896,96.293 180.814,110.915 167.731,96.293 167.731,132.848 193.896,132.848 "
         i:knockout="Off"
         style="fill:white;stroke:black;stroke-width:1.53130317;stroke-miterlimit:4;stroke-dasharray:none" />
      <rect
         id="rect2919"
         height="201.92543"
         width="121.02307"
         i:knockout="Off"
         y="210.14229"
         x="240.9964"
         style="fill:white;stroke:black;stroke-width:2.75;stroke-miterlimit:4;stroke-dasharray:none" />
      <path
         id="path2913"
         d="M 128.75018,399.36748 L 128.75018,534.81094 L 264.88325,534.81094 L 264.88325,485.27584 C 264.88325,466.29724 281.28121,450.91034 301.50794,450.91034 C 321.73467,450.91034 338.13263,466.29544 338.13263,485.27584 L 338.13263,534.81094 L 474.26569,534.81094 L 474.26569,399.36748 L 128.75018,399.36748 z "
         i:knockout="Off"
         style="fill:white;stroke:black;stroke-width:2.75;stroke-miterlimit:4;stroke-dasharray:none" />
      <polygon
         transform="matrix(1.795856,0,0,1.795856,126.0564,142.1642)"
         id="polygon2921"
         points="139.336,13.739 128.895,3.558 128.895,32.417 108.133,32.417 108.133,3.558 97.691,13.739 87.25,3.558 87.25,32.417 66.501,32.417 66.501,3.558 56.06,13.739 45.618,3.558 45.618,57.429 149.779,57.429 149.779,3.558 139.336,13.739 "
         i:knockout="Off"
         style="fill:white;stroke:black;stroke-width:1.53130317;stroke-miterlimit:4;stroke-dasharray:none" />
    </g>
  </g>
  <g
     inkscape:groupmode="layer"
     id="layer3"
     inkscape:label="Reflet final"
     style="display:inline"
     sodipodi:insensitive="true">
    <path
       style="fill:url(#radialGradient3236);fill-opacity:1"
       d="M 1.5,1.5 L 1.5,460.3679 C 1.5,626.67854 135.81454,761.5 301.49993,761.5 C 467.1854,761.5 601.5,626.67854 601.5,460.3679 L 601.5,1.5 L 1.5,1.5 z "
       id="path2346" />
  </g>
  <g
     inkscape:groupmode="layer"
     id="layer4"
     inkscape:label="Contour final"
     style="display:inline"
     sodipodi:insensitive="true">
    <path
       style="fill:none;fill-opacity:1;stroke:#000000;stroke-width:3;stroke-miterlimit:4;stroke-dasharray:none;stroke-opacity:1"
       d="M 1.5,1.5 L 1.5,460.36794 C 1.5,626.67854 135.81454,761.5 301.49993,761.5 C 467.1854,761.5 601.5,626.67854 601.5,460.36794 L 601.5,1.5 L 1.5,1.5 z "
       id="path3239" />
  </g>
</svg>

<?xml version="1.0" encoding="UTF-8"?>
<svg version="1.0" viewBox="0 0 603 763" xmlns="http://www.w3.org/2000/svg" xmlns:cc="http://web.resource.org/cc/" xmlns:dc="http://purl.org/dc/elements/1.1/" xmlns:rdf="http://www.w3.org/1999/02/22-rdf-syntax-ns#" xmlns:xlink="http://www.w3.org/1999/xlink">
<metadata>
<rdf:RDF>
<cc:Work rdf:about="">
<dc:format>image/svg+xml</dc:format>
<dc:type rdf:resource="http://purl.org/dc/dcmitype/StillImage"/>
<dc:date>07-AUG-2006</dc:date>
<dc:creator>
<cc:Agent>
<dc:title>Jérôme BLUM (wagner51)</dc:title>
</cc:Agent>
</dc:creator>
<cc:license rdf:resource="http://creativecommons.org/licenses/GPL/2.0/"/>
<dc:coverage/>
<dc:description>Gabarit pour le Projet:Blasons de WIkipédia</dc:description>
<dc:subject>
<rdf:Bag>
<rdf:li>blason suisse modèle gabarit projet blasons</rdf:li>
</rdf:Bag>
</dc:subject>
<dc:language>fr</dc:language>
<dc:title>Gabrit d'un blason suisse</dc:title>
</cc:Work>
<cc:License rdf:about="http://creativecommons.org/licenses/GPL/2.0/">
<cc:permits rdf:resource="http://web.resource.org/cc/Reproduction"/>
<cc:permits rdf:resource="http://web.resource.org/cc/Distribution"/>
<cc:requires rdf:resource="http://web.resource.org/cc/Notice"/>
<cc:permits rdf:resource="http://web.resource.org/cc/DerivativeWorks"/>
<cc:requires rdf:resource="http://web.resource.org/cc/ShareAlike"/>
<cc:requires rdf:resource="http://web.resource.org/cc/SourceCode"/>
</cc:License>
</rdf:RDF>
</metadata>
<defs>
<radialGradient id="a" cx="858.04" cy="579.93" r="300" gradientTransform="matrix(1.215 1.5316e-24 1.4647e-23 1.2667 -839.19 -490.49)" gradientUnits="userSpaceOnUse">
<stop stop-color="#fff" stop-opacity=".31373" offset="0"/>
<stop stop-color="#fff" stop-opacity=".25098" offset=".19"/>
<stop stop-color="#6b6b6b" stop-opacity=".12549" offset=".6"/>
<stop stop-opacity=".12549" offset="1"/>
</radialGradient>
</defs>
<desc>Coat of Arms of Canton of Freiburg (Fribourg)</desc>
<path d="m1.5 1.5v458.87c0 166.31 134.31 301.13 300 301.13 165.69 0 300-134.82 300-301.13v-458.87h-600z" fill="#e20909"/>
<g stroke="#000">
<path d="m301.5 563.22c-51.057-3e-5 -64.927 46.366-58.625 77.25 0-1e-5 -44.753-39.077-81.312 3.1562-22.214 25.661-17.713 55.855-4.6562 80.625 42.886 23.728 92.162 37.25 144.59 37.25s101.71-13.522 144.59-37.25c13.057-24.77 17.558-54.964-4.6562-80.625-36.557-42.233-81.312-3.1562-81.312-3.1562 6.3047-30.884-7.5705-77.25-58.625-77.25z" fill="#5ab532" stroke-width="2.75"/>
<g transform="matrix(1.05 0 0 1.05 -15.075 -43.688)" fill="#fff">
<polygon transform="matrix(1.7959 0 0 1.7959 126.06 164.79)" points="1.5 132.85 1.5 96.293 14.583 110.92 27.666 96.293 27.666 132.85" stroke-width="1.5313"/>
<polygon transform="matrix(1.7959 0 0 1.7959 126.06 164.79)" points="193.9 132.85 193.9 96.293 180.81 110.92 167.73 96.293 167.73 132.85" stroke-width="1.5313"/>
<rect x="241" y="210.14" width="121.02" height="201.93" stroke-width="2.75"/>
<path d="m128.75 399.37v135.44h136.13v-49.535c0-18.979 16.398-34.366 36.625-34.366s36.625 15.385 36.625 34.366v49.535h136.13v-135.44h-345.52z" stroke-width="2.75"/>
<polygon transform="matrix(1.7959 0 0 1.7959 126.06 142.16)" points="139.34 13.739 128.9 3.558 128.9 32.417 108.13 32.417 108.13 3.558 97.691 13.739 87.25 3.558 87.25 32.417 66.501 32.417 66.501 3.558 56.06 13.739 45.618 3.558 45.618 57.429 149.78 57.429 149.78 3.558" stroke-width="1.5313"/>
</g>
</g>
<g>
<path d="m1.5 1.5v458.87c0 166.31 134.31 301.13 300 301.13 165.69 0 300-134.82 300-301.13v-458.87h-600z" fill="url(#a)"/>
<path d="m1.5 1.5v458.87c0 166.31 134.31 301.13 300 301.13 165.69 0 300-134.82 300-301.13v-458.87h-600z" fill="none" stroke="#000" stroke-width="3"/>
</g>
</svg>
